X: 7465
T: Cnoc Na gClarac
R: slide
M: 12/8
K: Dmixolydian
|:A3 ABA G2 B A2 G|F2 D DDD d3 c2 B|
ABA AAA G2 B A2 G|FED EEE D3 D3:|
A2 d d2 c A2 G EEE|A2 d d2 c AAA G3|
A2 d d2 c ABA ABA|GAG GAB c2 d B2 c:|

